libs/shared/images/icons-sharp-light/file-pdf.svg

<svg xmlns="http://www.w3.org/2000/svg" viewBox="0 0 512 512"><path d="M352 192v96h32V152L232 0H32 0V32 480v32H32 96V480H32V32H192V176v16h16H352zm-5.3-32H224V37.3L346.7 160zM176 352H160v16 80 48 16h32V496 464h16c30.9 0 56-25.1 56-56s-25.1-56-56-56H176zm32 80H192V384h16c13.3 0 24 10.7 24 24s-10.7 24-24 24zm96-80H288v16V496v16h16 32c26.5 0 48-21.5 48-48V400c0-26.5-21.5-48-48-48H304zm32 128H320V384h16c8.8 0 16 7.2 16 16v64c0 8.8-7.2 16-16 16zm80-128v16 64 64 16h32V496 448h32 16V416H480 448V384h32 16V352H480 432 416z"/></svg>

<svg xmlns="http://www.w3.org/2000/svg" viewBox="0 0 512 512"><defs><style>.fa-secondary{opacity:.4}</style></defs><path class="fa-secondary" d="M0 0L224 0l0 160 160 0 0 144-272 0 0 208L0 512 0 0z"/><path class="fa-primary" d="M384 160L224 0l0 160 160 0zM176 352l-16 0 0 16 0 80 0 48 0 16 32 0 0-16 0-32 16 0c30.9 0 56-25.1 56-56s-25.1-56-56-56l-32 0zm32 80l-16 0 0-48 16 0c13.3 0 24 10.7 24 24s-10.7 24-24 24zm96-80l-16 0 0 16 0 128 0 16 16 0 32 0c26.5 0 48-21.5 48-48l0-64c0-26.5-21.5-48-48-48l-32 0zm32 128l-16 0 0-96 16 0c8.8 0 16 7.2 16 16l0 64c0 8.8-7.2 16-16 16zm80-128l0 16 0 64 0 64 0 16 32 0 0-16 0-48 32 0 16 0 0-32-16 0-32 0 0-32 32 0 16 0 0-32-16 0-48 0-16 0z"/></svg>
